dist/img/blog/21.svg

<svg width="25" height="25" viewBox="0 0 25 25" fill="none" xmlns="http://www.w3.org/2000/svg">
<path d="M11.285 3.60662C11.6786 2.79779 12.3229 2.79779 12.7192 3.60662L14.6064 7.45122C15.0999 8.32067 15.9454 8.93414 16.925 9.13348L21.1847 9.74828C22.0663 9.87494 22.2631 10.4897 21.6269 11.0963L18.5534 14.0889C17.8785 14.8258 17.556 15.819 17.6691 16.8118L18.3943 21.0364C18.5453 21.9126 18.0223 22.2927 17.235 21.8775L13.4336 19.8824V19.8825C12.5239 19.4693 11.4801 19.4693 10.5704 19.8825L6.76898 21.8777C5.98179 22.2902 5.45869 21.9128 5.60968 21.0365L6.33492 16.8119V16.8118C6.44802 15.819 6.12546 14.8258 5.45073 14.0889L2.37723 11.1097C1.7328 10.4896 1.93772 9.8776 2.81129 9.74828L7.06008 9.13093V9.1308C8.03984 8.93144 8.88524 8.31796 9.37868 7.44853L11.285 3.60662Z" fill="#202125"/>
</svg>

<svg width="25" height="25" viewBox="0 0 25 25" fill="none" xmlns="http://www.w3.org/2000/svg"><path d="M11.285 3.607c.394-.81 1.038-.81 1.434 0l1.887 3.844a3.46 3.46 0 002.319 1.682l4.26.615c.881.127 1.078.742.442 1.348l-3.074 2.993a3.453 3.453 0 00-.884 2.723l.725 4.224c.151.877-.372 1.257-1.159.841l-3.801-1.995a3.462 3.462 0 00-2.864 0l-3.8 1.996c-.787.412-1.31.035-1.16-.841l.726-4.225a3.453 3.453 0 00-.884-2.723l-3.074-2.98c-.644-.62-.44-1.231.434-1.36l4.25-.618A3.464 3.464 0 009.38 7.449l1.906-3.842z" fill="#202125"/></svg>
